icons/svg/seamark_shields_x4/h_seamark_small_craft_facility_shield.svg

<?xml version="1.0" encoding="UTF-8" standalone="no"?>
<svg
   xmlns:dc="http://purl.org/dc/elements/1.1/"
   xmlns:cc="http://creativecommons.org/ns#"
   xmlns:rdf="http://www.w3.org/1999/02/22-rdf-syntax-ns#"
   xmlns:svg="http://www.w3.org/2000/svg"
   xmlns="http://www.w3.org/2000/svg"
   xmlns:sodipodi="http://sodipodi.sourceforge.net/DTD/sodipodi-0.dtd"
   xmlns:inkscape="http://www.inkscape.org/namespaces/inkscape"
   width="64"
   height="64"
   id="svg2"
   version="1.1"
   inkscape:version="0.48.4 r9939"
   sodipodi:docname="h_seamark_small_craft_facility_shield.svg">
  <defs
     id="defs13">
    <inkscape:path-effect
       effect="gears"
       id="path-effect3774"
       is_visible="true"
       teeth="6"
       phi="-1.2" />
    <inkscape:path-effect
       effect="bend_path"
       id="path-effect3772"
       is_visible="false"
       bendpath="m 95.790098,316.51174 c 144.429032,-206.42506 223.313032,-11.7428 339.548092,0"
       prop_scale="1.19"
       scale_y_rel="false"
       vertical="false"
       bendpath-nodetypes="cc" />
  </defs>
  <sodipodi:namedview
     pagecolor="#ffffff"
     bordercolor="#666666"
     borderopacity="1"
     objecttolerance="10"
     gridtolerance="10"
     guidetolerance="10"
     inkscape:pageopacity="0"
     inkscape:pageshadow="2"
     inkscape:window-width="1920"
     inkscape:window-height="1004"
     id="namedview11"
     showgrid="false"
     inkscape:zoom="13.020689"
     inkscape:cx="29.978924"
     inkscape:cy="41.112893"
     inkscape:window-x="1680"
     inkscape:window-y="0"
     inkscape:window-maximized="1"
     inkscape:current-layer="svg2" />
  <metadata
     id="metadata2975">image/svg+xmlen<rdf:RDF>
  <cc:Work
     rdf:about="">
    <dc:format>image/svg+xml</dc:format>
    <dc:type
       rdf:resource="http://purl.org/dc/dcmitype/StillImage" />
    <dc:title />
  </cc:Work>
</rdf:RDF>
</metadata>
  <path
     style="color:#000000;fill:#930093;fill-opacity:1;fill-rule:nonzero;stroke:none;stroke-width:10;marker:none;visibility:visible;display:inline;overflow:visible;enable-background:accumulate"
     d="m 23.781132,21.311826 c -1.384368,0 -2.498114,1.150455 -2.498114,2.580442 l 0,16.215463 c 0,1.429986 1.113755,2.580441 2.498114,2.580441 l 16.437735,0 c 1.384368,0 2.498114,-1.150455 2.498114,-2.580441 l 0,-16.215463 c 0,-1.429987 -1.113755,-2.580442 -2.498114,-2.580442 l -16.437735,0 z m 0.213205,1.186926 16.01132,0 c 0.842612,0 1.520759,0.681498 1.520759,1.527995 l 0,15.946504 c 0,0.846497 -0.678147,1.527996 -1.520759,1.527996 l -16.01132,0 c -0.842596,0 -1.520759,-0.681499 -1.520759,-1.527996 l 0,-15.946504 c 0,-0.846497 0.678147,-1.527995 1.520759,-1.527995 z"
     id="rect3761"
     inkscape:connector-curvature="0" />
  <rect
     style="opacity:0.6;color:#000000;fill:#fefefe;fill-opacity:1;fill-rule:nonzero;stroke:none;stroke-width:10;marker:none;visibility:visible;display:inline;overflow:visible;enable-background:accumulate"
     id="rect3761-3"
     width="19.052839"
     height="19.002102"
     x="22.473577"
     y="22.498945"
     ry="1.5279715"
     rx="1.5209466" />
</svg>

<svg width="64" height="64" viewBox="0 0 64 64" fill="none" xmlns="http://www.w3.org/2000/svg">
<path d="M23.7811 21.3118C22.3968 21.3118 21.283 22.4623 21.283 23.8923V40.1077C21.283 41.5377 22.3968 42.6882 23.7811 42.6882H40.2189C41.6032 42.6882 42.717 41.5377 42.717 40.1077V23.8923C42.717 22.4623 41.6032 21.3118 40.2189 21.3118H23.7811V21.3118ZM23.9943 22.4988H40.0057C40.8483 22.4988 41.5264 23.1803 41.5264 24.0267V39.9733C41.5264 40.8198 40.8483 41.5012 40.0057 41.5012H23.9943C23.1517 41.5012 22.4736 40.8198 22.4736 39.9733V24.0267C22.4736 23.1803 23.1517 22.4988 23.9943 22.4988V22.4988Z" fill="#930093"/>
<path opacity="0.6" d="M40.0055 22.499H23.9945C23.1545 22.499 22.4736 23.1831 22.4736 24.0269V39.9731C22.4736 40.817 23.1545 41.5011 23.9945 41.5011H40.0055C40.8455 41.5011 41.5264 40.817 41.5264 39.9731V24.0269C41.5264 23.1831 40.8455 22.499 40.0055 22.499Z" fill="#FEFEFE"/>
</svg>
